!!!OTL: Der eifersuechtige Knabe Es stehen drei Sterne am Himmel,
!!!ARE: Europa, Mitteleuropa, Lothringen, Settingen
!!!SCT: D0052
!!!YEM: Copyright 1995, estate of Helmut Schaffrath.
**kern
*ICvox
*Ivox
!! Mixed meters:  3/4; 4/4
*M4/4
*k[f#]
*G:
{4d
=1
4d
4g
4g
=2
4g
4a
4b
=3
4.b
8a
4b
=4
2a}
{4a
=5
4a
4b
4cc
=6
4cc
4dd
4ee
=7
2ee
4dd
=8
2b}
{4dd
4cc
=9
*M3/4
4.b
8cc
4b
=10
4a
4g
4dd
=11
[2.dd
=12
2dd]}
{4ee
=13
4.dd
8cc
4b
=14
4a
4dd
4cc
=15
[2.b
=16
2b]}
==
!!!AGN: Ballade, Liebe, Mord aus Eifersucht
!!!ONB: ESAC (Essen Associative Code) Database: DVA
!!!AMT: irregular
!!!AIN: vox
!!!EED: Helmut Schaffrath
!!!EEV: 1.0
*-
